!!!OTL: Prentice Boy
!!!ONM: 139.
**kern
*clefG2
*k[b-e-a-]
*E-:
!Referent unclear 
*M4/4
*MM80
{16B-
16B-
=1
4e-
4e-
4g
8f
8e-
=2
4.c
8B-
4.B-}
{8B-
=3
4e-
4g
4.b-
8g
=4
4cc
4cc
4.b-}
{8e-
=5
4g
4g
4.b-
8b-
=6
4.g
8g
4.b-}
{16cc
16b-
=7
4g
4g
4g
8.b-
16a-
=8
4g
4e-
4.e-
8r}
=9||
{4.B-
8e-
4g
4b-
=10
4.g
8r
2r}
=11
{4.c
8c
4c
4c
=12
2.B-}
==
*-
!!!CNT: Folksongs of Maritime Canada
!!!MRD: 1928///-1932///
!!!OCL: Helen Creighton
!!!YOR: Songs and Ballads from Nova Scotia
!!!PPR: J.M. Dent & Sons, Limited
!!!PPP: Toronto, Canada
!!!PDT: 1932///
!!!reprint: Dover Publications, 1992: ISBN 0-486-21703-5
!!!ENC1: Craig Stuart Sapp (music and bibliographic data)                       
!!!ENC2: Marcus Pearce (phrase markings and key designations)                   
!!!ENC3: Darrell Conklin (phrase markings and key designations)   
!!!END: 2002/04/10/
!!!EEV: 2004/06/05
!!!MPN: Mr. Ben Henneberry
!!!PPG: 304
!!!EFL: 141/152
!!!ARE: Canada; Nova Scotia
!!!verses: 7
!!!VTS: 1817890797
